svgs/duotone/face-unamused.svg

<svg xmlns="http://www.w3.org/2000/svg" viewBox="0 0 512 512"><!--! Font Awesome Pro 6.4.0 by @fontawesome - https://fontawesome.com License - https://fontawesome.com/license (Commercial License) Copyright 2023 Fonticons, Inc. --><defs><style>.fa-secondary{opacity:.4}</style></defs><path class="fa-primary" d="M96 208c0-8.8 7.2-16 16-16h64c17.7 0 32 14.3 32 32s-14.3 32-32 32s-32-14.3-32-32H112c-8.8 0-16-7.2-16-16zm192 0c0-8.8 7.2-16 16-16h64c17.7 0 32 14.3 32 32s-14.3 32-32 32s-32-14.3-32-32H304c-8.8 0-16-7.2-16-16z"/><path class="fa-secondary" d="M256 512A256 256 0 1 0 256 0a256 256 0 1 0 0 512zm60.1-117.3c-11.7-13-31.6-26.7-60.1-26.7s-48.4 13.7-60.1 26.7c-5.9 6.6-16 7.1-22.6 1.2s-7.1-16-1.2-22.6C188.2 355.4 216.3 336 256 336s67.8 19.4 83.9 37.3c5.9 6.6 5.4 16.7-1.2 22.6s-16.7 5.4-22.6-1.2zM112 192h64c17.7 0 32 14.3 32 32s-14.3 32-32 32s-32-14.3-32-32H112c-8.8 0-16-7.2-16-16s7.2-16 16-16zm176 16c0-8.8 7.2-16 16-16h64c17.7 0 32 14.3 32 32s-14.3 32-32 32s-32-14.3-32-32H304c-8.8 0-16-7.2-16-16z"/></svg>

<svg xmlns="http://www.w3.org/2000/svg" viewBox="0 0 512 512"><!--! Font Awesome Pro 6.3.0 by @fontawesome - https://fontawesome.com License - https://fontawesome.com/license (Commercial License) Copyright 2023 Fonticons, Inc. --><defs><style>.fa-secondary{opacity:.4}</style></defs><path class="fa-primary" d="M96 208C96 199.2 103.2 192 112 192H176C193.7 192 208 206.3 208 224C208 241.7 193.7 256 176 256C158.3 256 144 241.7 144 224H112C103.2 224 96 216.8 96 208zM288 208C288 199.2 295.2 192 304 192H368C385.7 192 400 206.3 400 224C400 241.7 385.7 256 368 256C350.3 256 336 241.7 336 224H304C295.2 224 288 216.8 288 208z"/><path class="fa-secondary" d="M0 256C0 114.6 114.6 0 256 0C397.4 0 512 114.6 512 256C512 397.4 397.4 512 256 512C114.6 512 0 397.4 0 256zM316.1 394.7C322 401.3 332.1 401.8 338.7 395.9C345.3 389.1 345.8 379.9 339.9 373.3C323.8 355.4 295.7 336 255.1 336C216.3 336 188.2 355.4 172.1 373.3C166.2 379.9 166.7 389.1 173.3 395.9C179.9 401.8 189.1 401.3 195.9 394.7C207.6 381.7 227.5 368 255.1 368C284.5 368 304.4 381.7 316.1 394.7H316.1zM112 192C103.2 192 96 199.2 96 208C96 216.8 103.2 224 112 224H144C144 241.7 158.3 256 176 256C193.7 256 208 241.7 208 224C208 206.3 193.7 192 176 192H112zM304 224H336C336 241.7 350.3 256 368 256C385.7 256 400 241.7 400 224C400 206.3 385.7 192 368 192H304C295.2 192 288 199.2 288 208C288 216.8 295.2 224 304 224z"/></svg>
